X: 1
T:After The battle  "by John Allen - R.A.F. Kinloss"
M:C
L:1/8
Q:80
C:
S:Slow Air ( played as a prelude to battle's o'er )
K:HP
| {g}A{d}B{GdG}c3|
af{g}ed{g}c{G}A-A3|
{g}A{d}B{GdG}c3|  !
{g}ec{g}B{A}A{GdG}B3| |
{g}A{d}B{GdG}c3|
af{g}ed{g}c{G}A-A3|  !
{g}A{d}B{GdG}c3|
{g}ec{g}B3{G}A3|] |
{g}e{d}c3/2{g}B{G}A3/2|  !
ag{a}fd{g}e3|
{g}A{d}B{GdG}c3|
{g}ec{g}B{G}A{GdG}B3| |  !
{g}e{d}c3/2{g}B{G}A3/2|
ag{g}fde3|
{g}A{d}B{GdG}c3|  !
{g}e3c3{g}B3{e}G3A3|]
